X:532341 F:http://www.vwml.org/record/HAM/5/32/34%%VWML:HAM-5-32-34-0 T:Death of Parker.
S:Mrs Marina Russell, Upwey coll. HED Hammond
O:England
A:Dorset
N:Transcribed from HAM-05-087.gif
F:HAM-05-32-34.abc
Z:EFDSS;PJHeadford
M:6/8
L:1/8
Q:3/8=90
K:G
D|G2G B2d|c2e d B G|E2E c2B|A2A G2D|G2G B2d|
c2e d B "<("">)"G|E2E c2B|A> A A G2D|(G> B) d e2c|A B c dB G|
GB d ed c|AB c d3|d B G B2d|(c B) A AF D|G2G E2C|D2D G2|| W:Transcribed from HAM-05-087.gif
% downloaded from http://folkopedia.efdss.org/HAM-05-32-35.abc X:53235
F:http://www.vwml.org/record/HAM/5/32/35%%VWML:HAM-5-32-35-0 T:Down by a river side
S:Mrs Marina Russell, Upwey coll. HED Hammond
O:England
A:Dorset
N:Transcribed from HAM-02-241.gif
F:HAM-05-32-35.abc
Z:EFDSS;PJHeadford
M:C|
L:1/8
Q:1/2=50
K:G
D2|G2G A GA Bc|d4 e4|(d2B2) BAG2|E4 G2A2|B2cB A2G2|
F4 E4|D4 D2D2|G3A B2c2|d2B2 G2c2|B4A4|G6||
W:Transcribed from HAM-02-241.gif Words from HAM-01-693.gif W:
W:Tis Down by the River-side
W:
W:Tis down by the river-side, a fair maid I espied
W:She was lamenting for her own true love
W:She was lamenting, sighing, crying, for her own true love
W:
W:"What makes you sigh & cry, my fair pretty maid" said I.
W:I'm lamenting for my own true love
W:I'm lamenting, sighing, crying for my own true love
W:
W:Now she is got wed & all her sorrow fled
W:She's a-living with her own true love
W:She's laughing, dancing singing with her own true love
W:
